!!!!SEGMENT: pl-kk--kk-i-40--001-002_anonim--missa-sine-nomine-et-in-terra.krn
!!!cenid: 16xx:1278
!!!COM: Anonim
!!!COM-rismID: pe30004985
!!!CDT:
!!!CNT:
!!!OPR: Missa sine nomine
!!!OTL: Et in terra
!!!OMV: 002
!!!PDT:
!!!AGN: Sacred; Mass
!!!SMS-siglum: PL-Kk
!!!SMS-shelfmark: Kk.I.40
!!!SMS-shelfwork: 001-002 M
!!!SMS-variant:
!!!SMS-altvar:
!!!NIFC-rismSourceID: 1001154484
!!!NIFC-rismChildID: 1001154486
!!!NIFC-islandoraID: pl-kk:2717
!!!URL-pdf-islandora: https://repozytorium.nifc.pl/islandora/object/pl-kk%3A2717/datastream/PDF/view
!!!URL-scan: https://polish.musicsources.pl/pl/lokalizacje/galeria/rekopisy/6010 @EN{Scan on Polish Music Sources Website} @PL{Skany w portalu Dziedzictwo Muzyki Polskiej w otwartym dostępie}
!!!ONB-nifc: UWAGA: części Mszy: 1. Kyrie, 2. Et in terra, 3. Sanctus, 4. Agnus Dei. Skan 0003-0004
!!!AIN: 1 empty
!!!key:
**kern	**text
*Iempty	*
*I"Baſso Ripieno.	*
*I'b rip	*
*clefF3	*
*k[b-]	*
*g:	*
*M2/1	*
*met(c|)	*
=1-	=1-
!LO:TX:t=P:global:problem=oddech/cezura na różnej wysokości	!
!LO:TX:t=P:znaki:problem= BB- pod B-	!
0G	Et
=2-	=2-
1C	in
*2\right	*
2F\	ter-
!LO:TX:t=P:problem=kreska pseudotaktowa	!
2F\	-ra
=3-	=3-
2BB-,/	pax
4BB-/	ho-
!LO:TX:t=P:problem=kreska pseudotaktowa	!
4C/	.
4D/	.
4E/	.
!LO:TX:t=P:problem=kreska pseudotaktowa	!
2F\	.
=4-	=4-
2G\	-mi-
2C/	-ni-
!LO:TX:t=P:problem=kreska pseudotaktowa	!
1D,	-b(us)
=5-	=5-
1G	bo-
1C,	-nae
=6-	=6-
2.F/	Vo-
4E/	-lun-
2D/	-ta-
2A\	.
=7-	=7-
*lig	*
1D	.
1A	.
*Xlig	*
=8-	=8-
!LO:TX:t=P:problem=kreska pseudotaktowa	!
1D,	-tis
!LO:N:vis=00	!
00r	.
=9-	=9-
.	.
=10-	=10-
!LO:TX:t=P:problem=kreska pseudotaktowa	!
.	.
1r	.
=11-	=11-
1D	be-
!LO:TX:t=P:problem=kreska pseudotaktowa	!
1G	-ne-
=12-	=12-
2.F\	-di-
!LO:TX:t=P:problem=kreska pseudotaktowa	!
4G\	.
2A\	.
2B-\	.
=13-	=13-
1A	ci-
2.B-\	-m(us)
4A\	.
=14-	=14-
!LO:TX:t=P:problem=kreska pseudotaktowa	!
1G	Te
!LO:LB:g=original	!
!LO:N:vis=00	!
00r	.
=15-	=15-
.	.
=16-	=16-
!LO:TX:t=P:problem=kreska pseudotaktowa	!
.	.
1r	.
=17-	=17-
1G	glo-
2E-X/	-ri-
!LO:TX:t=P:problem=kreska pseudotaktowa	!
2C/	-fi-
=18-	=18-
1G	-ca-
1C	-m(us)
=19-	=19-
!LO:TX:t=P:problem=kreska pseudotaktowa	!
0D	Te
=20-	=20-
2r	.
1G	Gra-
!LO:TX:t=P:problem=kreska pseudotaktowa	!
2D/	-ti-
=21-	=21-
!LO:TX:t=P:problem=kreska pseudotaktowa	!
1D	-as
1.G	a-
=22-	=22-
.	.
2D/	-gi-
!LO:TX:t=P:problem=kreska pseudotaktowa	!
1A	-m(us)
=23-	=23-
1D	Ti-
!LO:TX:t=P:problem=kreska pseudotaktowa	!
1G,	-bi
=24-	=24-
2r	.
1B-	prop-
!LO:TX:t=P:problem=kreska pseudotaktowa	!
2G\	-ter
=25-	=25-
0B-	-ma-
=26-	=26-
2F,\	-gnam
2.BB-/	glo-
4C/	-ri-
!LO:TX:t=P:problem=kreska pseudotaktowa	!
2D/	-a(m)
=27-	=27-
1F	tu-
!LO:TX:t=P:problem=kreska pseudotaktowa	!
1F,	-am
=28-	=28-
0r	.
=29-	=29-
!LO:TX:t=P:problem=kreska pseudotaktowa	!
1r	.
1.F	glo-
=30-	=30-
.	.
2D/	-ri-
!LO:TX:t=P:problem=kreska pseudotaktowa	!
1F	-am
=31-	=31-
0C	tu-
=32-	=32-
!LO:TX:t=P:problem=kreska pseudotaktowa	!
1F,	-am
!LO:N:vis=00	!
00r	.
=33-	=33-
.	.
=34-	=34-
.	.
!LO:TX:t=P:problem=kreska pseudotaktowa	!
0r	.
=35-	=35-
.	.
!LO:LB:g=original	!
2r	.
1c\	DE-
=36-	=36-
.	.
!LO:TX:t=P:problem=kreska pseudotaktowa	!
2Bn\	-US
1c	Pa-
=37-	=37-
!LO:TX:t=P:problem=kreska pseudotaktowa	!
1d,	-ter
1c	O-
=38-	=38-
2B-y\	-mni-
2A\	-po-
!LO:TX:t=P:problem=kreska pseudotaktowa	!
1G,	-tens
=39-	=39-
!LO:N:vis=00	!
00r	.
=40-	=40-
.	.
=41-	=41-
2r	.
2.G\	Do-
4G\	-mi-
!LO:TX:t=P:problem=kreska pseudotaktowa	!
2G\	-ne
=42-	=42-
1B-	Fi-
!LO:TX:t=P:problem=kreska pseudotaktowa	!
1c,	-li
=43-	=43-
2.G\	U-
4G\	-ni-
2A\	-ge-
!LO:TX:t=P:problem=kreska pseudotaktowa	!
2A\	.
=44-	=44-
1.G	.
4F/	-ni-
4Eny/	-te
=45-	=45-
*lig	*
1D	.
!LO:TX:t=P:problem=kreska pseudotaktowa	!
1G	.
*Xlig	*
=46-	=46-
!LO:TX:t=P:problem=kreska pseudotaktowa	!
0r	.
=47-	=47-
2.G\	JE-
4A\	.
0B-	-SU
=48-	=48-
.	.
!LO:TX:t=P:problem=kreska pseudotaktowa	!
1B-,	.
=49-	=49-
0F	(Chris)-
=50-	=50-
*custos:B-	*
!LO:TX:t=P:problem=kreska pseudotaktowa	!
1BB-,	-te
!LO:PB:g=original	!
2r	.
2.B-\	Do-
=51-	=51-
.	.
4B-\	-mi-
!LO:TX:t=P:problem=kreska pseudotaktowa	!
2c\	-ne
(>2.d\	De-
4c\)	.
=52-	=52-
2B-\	.
!LO:TX:t=P:problem=kreska pseudotaktowa	!
2A\	-us
2B-\	A-
2G\	-gn(us)
=53-	=53-
1F	DE-
!LO:TX:t=P:problem=kreska pseudotaktowa	!
1BB-,	-i
=54-	=54-
0r	.
=55-	=55-
!LO:TX:t=P:problem=kreska pseudotaktowa	!
1r	.
2r	.
2.F\	Fi-
=56-	=56-
.	.
4F\	-li-
!LO:TX:t=P:problem=kreska pseudotaktowa	!
2G\	-us
2.A\	Pa-
4G\	.
=57-	=57-
2F/	.
2E/	.
1F	-tris
=58-	=58-
!LO:TX:t=P:problem=kreska pseudotaktowa	!
1BB-,	.
2r	.
2F/	Fi-
=59-	=59-
2D/	-li-
!LO:TX:t=P:problem=kreska pseudotaktowa	!
2D/	-us
2.G\	Pa-
4F/	.
=60-	=60-
1E-X	.
0.D	.
=61-	=61-
.	.
=62-	=62-
0G;>	-tris.
!LO:LB:g=original	!
=63||-	=63||-
*k[b-]	*
*M2/1	*
*met(c|)	*
0r	.
=64-	=64-
!LO:TX:t=P:problem=kreska pseudotaktowa	!
1r	.
1c	Qui
=65-	=65-
!LO:TX:t=P:problem=kreska pseudotaktowa	!
1c	tol-
1.B-	-lis
=66-	=66-
.	.
4A\	.
!LO:TX:t=P:problem=kreska pseudotaktowa	!
4G\	.
(>2A\	pec-
2B-\)	.
=67-	=67-
2.c\	-ca-
!LO:TX:t=P:problem=kreska pseudotaktowa	!
4B-\	-ta
1A	mun-
=68-	=68-
!LO:TX:t=P:problem=kreska pseudotaktowa	!
1G,	-di
00r	.
=69-	=69-
.	.
=70-	=70-
.	.
0r	.
=71-	=71-
!LO:TX:t=P:problem=kreska pseudotaktowa	!
.	.
1G	mi-
=72-	=72-
1E-X	-ſe-
1F	-re-
=73-	=73-
!LO:TX:t=P:problem=kreska pseudotaktowa	!
1D	-re
1C	no-
=74-	=74-
!LO:TX:t=P:problem=kreska pseudotaktowa	!
1BB-,	-bis
1E-X	no-
=75-	=75-
!LO:TX:t=P:problem=kreska pseudotaktowa	!
0F,	-bis.
=76-	=76-
2r	.
2G\	Qui
!LO:TX:t=P:problem=kreska pseudotaktowa	!
1G	tol-
=77-	=77-
1.F	-lis
2Eny/	pec-
=78-	=78-
2F\	-ca-
!LO:TX:t=P:problem=kreska pseudotaktowa	!
2G\	-ta
!LO:TX:t=P:problem=♭ above	!
1E-X	mun-
=79-	=79-
!LO:TX:t=P:problem=kreska pseudotaktowa	!
1D,	-di
00r	.
=80-	=80-
.	.
=81-	=81-
.	.
0r	.
=82-	=82-
.	.
!LO:TX:t=P:problem=kreska pseudotaktowa	!
!LO:N:vis=1	!
1r	.
!LO:LB:g=original	!
=83-	=83-
2r	.
1G	Sus-
!LO:TX:t=P:problem=kreska pseudotaktowa	!
2A\	-ci-
=84-	=84-
4B-\	-pe
4A\	.
4G\	.
!LO:TX:t=P:problem=kreska pseudotaktowa	!
4F\	.
4E-X/	.
4D/	.
!LO:TX:t=P:problem=kreska pseudotaktowa	!
2C/	.
=85-	=85-
1G	de-
1E-X	-pre-
=86-	=86-
2BB-/	-ca-
2BB-/	-ti-
1C	-o-
=87-	=87-
!LO:TX:t=P:problem=kreska pseudotaktowa	!
1G,	-(ne)m
1C	no-
=88-	=88-
!LO:TX:t=P:problem=kreska pseudotaktowa	!
0D,	-stram
=89-	=89-
2r	.
!LO:TX:t=P:problem=kreska pseudotaktowa	!
2G\	Qui
1B-	se-
=90-	=90-
!LO:TX:t=P:problem=kreska pseudotaktowa	!
1F,	-des
2A\	ad
1c\	dex-
=91-	=91-
.	.
2B-\	-te-
!LO:TX:t=P:problem=kreska pseudotaktowa	!
1A,	-ra(m)
=92-	=92-
2.F\	Pa-
!LO:TX:t=P:problem=kreska pseudotaktowa	!
4G\	.
4A\	.
4B-\	.
1c\	.
=93-	=93-
.	.
2Bn\	.
*lig	*
1c	.
=94-	=94-
1d	.
*Xlig	*
!LO:TX:t=P:problem=kreska pseudotaktowa	!
1G,	-tris
=95-	=95-
!LO:N:vis=00	!
00r	.
=96-	=96-
.	.
=97-	=97-
!LO:TX:t=P:problem=kreska pseudotaktowa	!
1r	.
!LO:LB:g=original	!
2r	.
1G\	Quo-
=98-	=98-
.	.
2F\	-ni-
2Eny,/	-am
!LO:TX:t=P:problem=kreska pseudotaktowa	!
2D/	Tu
=99-	=99-
2A\	so-
2B-y\	-l(us)
2.F\	San-
!LO:TX:t=P:problem=kreska pseudotaktowa	!
4G\	.
=100-	=100-
1A	.
!LO:TX:t=P:problem=kreska pseudotaktowa	!
1D,	-ct(us)
=101-	=101-
1r	.
2r	.
!LO:TX:t=P:problem=kreska pseudotaktowa	!
2G\	Tu
=102-	=102-
2B-\	so-
!LO:TX:t=P:problem=kreska pseudotaktowa	!
2c\	-lus
2G\	Do-
2B-\	-mi-
=103-	=103-
*lig	*
1A	-n(us)
!LO:TX:t=P:problem=kreska pseudotaktowa	!
1G	.
*Xlig	*
=104-	=104-
1F	Tu
1.F	so-
=105-	=105-
.	.
!LO:TX:t=P:problem=kreska pseudotaktowa	!
2D/	-lus
2A\	al-
4D/	.
!LO:TX:t=P:problem=kreska pseudotaktowa	!
4E/	.
=106-	=106-
4F\	.
4G\	.
!LO:TX:t=P:problem=kreska pseudotaktowa	!
2A\	.
2F/	-tiſ-
2D/	-si-
=107-	=107-
*lig	*
1A	-m(us)
!LO:TX:t=P:problem=kreska pseudotaktowa	!
1D	.
*Xlig	*
=108-	=108-
0G	JE-
=109-	=109-
!LO:TX:t=P:problem=kreska pseudotaktowa	!
0C	-SU
!LO:LB:g=original	!
=110-	=110-
0G	(Chris)-
=111-	=111-
!LO:TX:t=P:problem=kreska pseudotaktowa	!
0D	-te
=112-	=112-
2r	.
2d\	Cum
1d	S(an)-
=113-	=113-
!LO:TX:t=P:problem=kreska pseudotaktowa	!
1G	-cto
2.c\	San-
!LO:TX:t=P:problem=kreska pseudotaktowa	!
4B-\	.
=114-	=114-
4A\	.
4G\	.
2.F/	.
4E/	.
1D/	.
=115-	=115-
.	.
!LO:TX:t=P:problem=kreska pseudotaktowa	!
2C#X/	-cto
4D/	Spi-
4E/	.
4F/	-ri-
4G/	.
=116-	=116-
*lig	*
1A	-tu
!LO:TX:t=P:problem=kreska pseudotaktowa	!
1D,	.
*Xlig	*
=117-	=117-
!LO:TX:t=P:problem=kreska pseudotaktowa	!
!LO:N:vis=00	!
00r	.
=118-	=118-
.	.
=119-	=119-
2r	.
!LO:TX:t=P:problem=kreska pseudotaktowa	!
2G\	in
2.B-\	glo-
4c\	-ri-
=120-	=120-
!LO:TX:t=P:problem=kreska pseudotaktowa	!
1c,	-a
2G\	De-
2B-,\	-i
=121-	=121-
1A	Pa-
!LO:TX:t=P:problem=kreska pseudotaktowa	!
1G,	-tris
=122-	=122-
0r	.
=123-	=123-
1r	.
1G	in
=124-	=124-
2.D/	glo-
4D/	-(ri)-
!LO:TX:t=P:problem=kreska pseudotaktowa	!
1Cny	-a
=125-	=125-
1.G	De-
2G\	-i
=126-	=126-
0D	P(a)-
=127-	=127-
!LO:TX:t=P:problem=kreska pseudotaktowa	!
0G	-tris
=128-	=128-
0C	a-
=129-	=129-
0G;>	-men
==	==
*-	*-
!!!RDF**kern: > = above
!!!RDF**kern: < = below
!!!EED: Antoni Szymański
!!!EEV: 2021-07-31
!!!ENC: Katarzyna Serwa
!!!END: 2021-07-04
!!!YEC: Copyright 2022 Narodowy Instytut Fryderyka Chopina (https://polishscores.org)
!!!YEM: License CC-BY-4.0 (https://creativecommons.org/licenses/by/4.0)
